X:81
T:score17
L:1/8
Q:1/4=96
M:4/4
I:linebreak $
K:G
 (d2 e>d .B2 .B2 | B>A B>c B2- B) z | (c2 A>d B2- B) z |$ (G2 E>A D2- D) z | (A4- Aedc | %5
 BABc B2- B) z |$ (F2 B2 B2 ^A^c | f8) |] %8
